X:1
T: Finbarr's Jig
C:Bruce Shawyer
R:Jig
I:speed 180
K:D
M:6/8
L:1/16
A2|d2f2d2 B4d2|A2B2A2 A4F2|A4B2 d4f2|e2f2e2 e2c2A2|d2f2d2 B4d2|A2B2A2 A4F2|A4B2 d4f2|e6 d4A2|
d2f2d2 B4d2|A2B2A2 A4F2|A4B2 d4f2|e2f2e2 e2c2A2|d2f2d2 B4d2|A2B2A2 A4F2|A4B2 d4f2|e6 d4d2|
f2a2f2 d2f2d2|B2d2B2 G2B2G2|f2a2f2 d2f2d2|e2c2A2 A2c2e2|f2a2f2 d2f2d2|B2d2B2 G2B2G2|A4B2 d4f2|e6 d4d2|
f2a2f2 d2f2d2|B2d2B2 G2B2G2|f2a2f2 d2f2d2|e2c2A2 A2c2e2|f2a2f2 d2f2d2|B2d2B2 G2B2G2|A4B2 d4f2|e6 d4||
